images_sukapura_svg/cmd/lc_deletetable.svg

<svg viewBox="0 0 24 24" xmlns="http://www.w3.org/2000/svg" xmlns:xlink="http://www.w3.org/1999/xlink"><linearGradient id="a" gradientUnits="userSpaceOnUse" x1="12" x2="12" y1="3" y2="21"><stop offset="0" stop-color="#efefef"/><stop offset=".33333334" stop-color="#fff"/><stop offset=".8888889" stop-color="#fff"/><stop offset="1" stop-color="#f5f5f5"/></linearGradient><filter id="b" color-interpolation-filters="sRGB" height="1.094553" width="1.097492" x="-.048746" y="-.047277"><feGaussianBlur stdDeviation=".36559322"/></filter><path d="m3 4h18v18.559322h-18z" filter="url(#b)" opacity=".15" stroke-width="1.015418"/><path d="m3 3h18v18h-18z" fill="url(#a)"/><path d="m3 2c-.554 0-1 .446-1 1v18c0 .554.446 1 1 1h18c.554 0 1-.446 1-1v-18c0-.554-.446-1-1-1zm0 1h5v6h-5zm6 0h6v6h-6zm7 0h5v6h-5zm-13 7h5v3h-5zm6 0h6v3h-6zm7 0h5v3h-5zm-13 4h5v3h-5zm6 0h6v3h-6zm7 0h5v3h-5zm-13 4h5v3h-5zm6 0h6v3h-6zm7 0h5v3h-5z" fill="#bababa"/><path d="m2 2h20v4h-20z" fill="#0a84ff"/><path d="m3 2c-.554 0-1 .446-1 1v18c0 .554.446 1 1 1h18c.554 0 1-.446 1-1v-18c0-.554-.446-1-1-1zm0 1h5 1 6 1 5v6 1 3 1 3 1 3h-5-1-6-1-5v-3-1-3-1-3-1z" fill="#69696e"/><path d="m3 2c-.554 0-1 .446-1 1v2 1h1 18 1v-1-2c0-.554-.446-1-1-1zm0 1h5v2h-5zm6 0h6v2h-6zm7 0h5v2h-5z" fill="#0040dd"/><path d="m15.078125 11.996094a1.0041282 1.0041282 0 0 0 -.679687.27539l-2.089844 1.982422a1.0041282 1.0041282 0 0 0 -.027344 1.429688l2.238281 2.296875-2.232422 2.253906a1.0041282 1.0041282 0 0 0 .007813 1.421875l.349609.34375h4.771485l.595703-.628906.595703.628906h3.392578v-3.505859l-.515625-.525391.515625-.572266v-4.71875l-.423828-.404296a1.0041282 1.0041282 0 0 0 -1.41211.02539l-2.15625 2.210938-2.207031-2.21875a1.0041282 1.0041282 0 0 0 -.722656-.294922z" fill="#fff" fill-opacity=".784314"/><path d="m23 20.944338-2.895447-2.946153 2.7861-3.086414-2.008392-1.911762-2.867282 2.941173-2.925406-2.941173-2.089573 1.98208 2.925403 3.003525-2.925403 2.955562 2.089573 2.058824 2.922011-3.088233 2.928799 3.088233z" fill="#c20618"/></svg>

<?xml version="1.0" encoding="UTF-8" standalone="no"?>
<svg
   xmlns:dc="http://purl.org/dc/elements/1.1/"
   xmlns:cc="http://creativecommons.org/ns#"
   xmlns:rdf="http://www.w3.org/1999/02/22-rdf-syntax-ns#"
   xmlns:svg="http://www.w3.org/2000/svg"
   xmlns="http://www.w3.org/2000/svg"
   xmlns:sodipodi="http://sodipodi.sourceforge.net/DTD/sodipodi-0.dtd"
   xmlns:inkscape="http://www.inkscape.org/namespaces/inkscape"
   viewBox="0 0 24 24"
   version="1.1"
   id="svg974"
   sodipodi:docname="lc_deletetable.svg"
   inkscape:version="0.92.3 (unknown)"
   inkscape:export-filename="/home/rizmut/Dokumen/Rizmut/Github/libreoffice-style-sukapura/images_sukapura/cmd/lc_deletetable.png"
   inkscape:export-xdpi="96"
   inkscape:export-ydpi="96">
  <metadata
     id="metadata980">
    <rdf:RDF>
      <cc:Work
         rdf:about="">
        <dc:format>image/svg+xml</dc:format>
        <dc:type
           rdf:resource="http://purl.org/dc/dcmitype/StillImage" />
        <dc:title></dc:title>
      </cc:Work>
    </rdf:RDF>
  </metadata>
  <defs
     id="defs978" />
  <sodipodi:namedview
     pagecolor="#ffffff"
     bordercolor="#666666"
     borderopacity="1"
     objecttolerance="10"
     gridtolerance="10"
     guidetolerance="10"
     inkscape:pageopacity="0"
     inkscape:pageshadow="2"
     inkscape:window-width="1366"
     inkscape:window-height="699"
     id="namedview976"
     showgrid="true"
     inkscape:zoom="9.8333333"
     inkscape:cx="1.4144061"
     inkscape:cy="0.5660904"
     inkscape:window-x="0"
     inkscape:window-y="0"
     inkscape:window-maximized="1"
     inkscape:current-layer="svg974">
    <inkscape:grid
       type="xygrid"
       id="grid2087" />
  </sodipodi:namedview>
  <linearGradient
     id="a"
     gradientUnits="userSpaceOnUse"
     x1="12"
     x2="12"
     y1="3"
     y2="21">
    <stop
       offset="0"
       stop-color="#efefef"
       id="stop950" />
    <stop
       offset=".33333334"
       stop-color="#fff"
       id="stop952" />
    <stop
       offset=".8888889"
       stop-color="#fff"
       id="stop954" />
    <stop
       offset="1"
       stop-color="#f5f5f5"
       id="stop956" />
  </linearGradient>
  <filter
     id="b"
     color-interpolation-filters="sRGB"
     height="1.094553"
     width="1.097492"
     x="-.048746"
     y="-.047277">
    <feGaussianBlur
       stdDeviation=".36559322"
       id="feGaussianBlur959" />
  </filter>
  <path
     d="m3 4h18v18.559322h-18z"
     filter="url(#b)"
     opacity=".15"
     stroke-width="1.015418"
     id="path962" />
  <path
     d="m3 3h18v18h-18z"
     fill="url(#a)"
     id="path964" />
  <path
     d="m3 2c-.554 0-1 .446-1 1v18c0 .554.446 1 1 1h18c.554 0 1-.446 1-1v-18c0-.554-.446-1-1-1zm0 1h5v6h-5zm6 0h6v6h-6zm7 0h5v6h-5zm-13 7h5v3h-5zm6 0h6v3h-6zm7 0h5v3h-5zm-13 4h5v3h-5zm6 0h6v3h-6zm7 0h5v3h-5zm-13 4h5v3h-5zm6 0h6v3h-6zm7 0h5v3h-5z"
     fill="#bababa"
     id="path966" />
  <path
     d="m2 2h20v4h-20z"
     fill="#0a84ff"
     id="path968" />
  <path
     d="m3 2c-.554 0-1 .446-1 1v18c0 .554.446 1 1 1h18c.554 0 1-.446 1-1v-18c0-.554-.446-1-1-1zm0 1h5 1 6 1 5v6 1 3 1 3 1 3h-5-1-6-1-5v-3-1-3-1-3-1z"
     fill="#69696e"
     id="path970" />
  <path
     d="m3 2c-.554 0-1 .446-1 1v2 1h1 18 1v-1-2c0-.554-.446-1-1-1zm0 1h5v2h-5zm6 0h6v2h-6zm7 0h5v2h-5z"
     fill="#0040dd"
     id="path972" />
  <path
     style="fill:#ffffff;fill-opacity:0.78431374;"
     d="M 15.078125 11.996094 A 1.0041282 1.0041282 0 0 0 14.398438 12.271484 L 12.308594 14.253906 A 1.0041282 1.0041282 0 0 0 12.28125 15.683594 L 14.519531 17.980469 L 12.287109 20.234375 A 1.0041282 1.0041282 0 0 0 12.294922 21.65625 L 12.644531 22 L 17.416016 22 L 18.011719 21.371094 L 18.607422 22 L 22 22 L 22 18.494141 L 21.484375 17.96875 L 22 17.396484 L 22 12.677734 L 21.576172 12.273438 A 1.0041282 1.0041282 0 0 0 20.164062 12.298828 L 18.007812 14.509766 L 15.800781 12.291016 A 1.0041282 1.0041282 0 0 0 15.078125 11.996094 z "
     id="path2089" />
  <path
     inkscape:connector-curvature="0"
     style="fill:#c20618;fill-opacity:1"
     d="m 23,20.944338 -2.895447,-2.946153 2.7861,-3.086414 -2.008392,-1.911762 -2.867282,2.941173 L 15.089573,13.000009 13,14.982089 15.925403,17.985614 13,20.941176 15.089573,23 18.011584,19.911767 20.940383,23 Z"
     id="path6" />
</svg>
